public/phone.svg

<svg width="22" height="22" viewBox="0 0 22 22" fill="none" xmlns="http://www.w3.org/2000/svg">
<path d="M20.9999 15.92V18.92C21.0011 19.1985 20.944 19.4742 20.8324 19.7294C20.7209 19.9845 20.5572 20.2136 20.352 20.4019C20.1468 20.5901 19.9045 20.7335 19.6407 20.8227C19.3769 20.9119 19.0973 20.9451 18.8199 20.92C15.7428 20.5856 12.7869 19.5342 10.1899 17.85C7.77376 16.3147 5.72527 14.2662 4.18993 11.85C2.49991 9.24121 1.44818 6.271 1.11993 3.18001C1.09494 2.90347 1.12781 2.62477 1.21643 2.36163C1.30506 2.09849 1.4475 1.85669 1.6347 1.65163C1.82189 1.44656 2.04974 1.28271 2.30372 1.17053C2.55771 1.05834 2.83227 1.00027 3.10993 1.00001H6.10993C6.59524 0.995229 7.06572 1.16708 7.43369 1.48354C7.80166 1.79999 8.04201 2.23945 8.10993 2.72001C8.23656 3.68007 8.47138 4.62273 8.80993 5.53001C8.94448 5.88793 8.9736 6.27692 8.89384 6.65089C8.81408 7.02485 8.6288 7.36812 8.35993 7.64001L7.08993 8.91001C8.51349 11.4136 10.5864 13.4865 13.0899 14.91L14.3599 13.64C14.6318 13.3711 14.9751 13.1859 15.3491 13.1061C15.723 13.0263 16.112 13.0555 16.4699 13.19C17.3772 13.5286 18.3199 13.7634 19.2799 13.89C19.7657 13.9585 20.2093 14.2032 20.5265 14.5775C20.8436 14.9518 21.0121 15.4296 20.9999 15.92Z" stroke="#17A68C" stroke-width="2" stroke-linecap="round" stroke-linejoin="round"/>
</svg>

<svg xmlns="http://www.w3.org/2000/svg" width="22" height="22" fill="none" xmlns:v="https://vecta.io/nano"><path d="M21 15.92v3a2 2 0 0 1-.648 1.482 2 2 0 0 1-1.532.518 19.79 19.79 0 0 1-8.63-3.07 19.5 19.5 0 0 1-6-6 19.79 19.79 0 0 1-3.07-8.67 2 2 0 0 1 .515-1.528A2 2 0 0 1 3.11 1h3a2 2 0 0 1 2 1.72 12.84 12.84 0 0 0 .7 2.81 2 2 0 0 1-.45 2.11L7.09 8.91a16 16 0 0 0 6 6l1.27-1.27a2 2 0 0 1 2.11-.45c.907.339 1.85.573 2.81.7A2 2 0 0 1 21 15.92z" stroke="#17a68c" stroke-width="2" stroke-linejoin="round"/></svg>
